public/images/vote/question.svg

<svg fill="none" height="36" viewBox="0 0 36 36" width="36" xmlns="http://www.w3.org/2000/svg"><path d="m6.98432 34.0964c-.30866 0-.61322.1175-.8449.3412-1.48103 1.4302-3.64141 1.9063-5.561917 1.3103 1.235987-2.5749 1.407257-5.5248.449447-8.2562-1.18867-3.3983-1.486554-6.8045-.133744-10.2207 1.188494-3.001 3.482004-5.4942 6.384634-6.916-.17857.952-.26857 1.922-.26857 2.9023-.00008 4.1608 1.5999 8.0741 4.50493 11.0193 2.9054 2.9455 6.8001 4.6017 10.9664 4.6636.7741.0121 1.5447-.0334 2.3065-.1338-2.2898 4.0136-6.6082 6.6276-11.3536 6.698-2.0759.0321-4.06915-.4029-5.92541-1.2893-.16716-.0799-.34618-.1187-.52377-.1187z" fill="#46c4c2"/><path d="m22.4457.00264504c7.391-.14675804 13.535 5.83244496 13.5528 13.22185496.0044 1.8054-.3481 3.5558-1.0475 5.2028-.0102.024-.0196.0482-.0282.0728-.9578 2.7314-.7866 5.6812.4495 8.2562-1.9207.5958-4.0808.1199-5.562-1.3104-.3648-.3525-.9108-.4412-1.3686-.2224-1.856.8864-3.8495 1.3227-5.9253 1.2894-7.3332-.1089-13.07742-5.9315-13.07733-13.2558-.00009-7.16441 5.83473-13.110281 13.00663-13.25445496zm7.3566 15.23435496c1.0619 0 1.9228-.8594 1.9228-1.9195s-.8609-1.9195-1.9228-1.9195-1.9227.8594-1.9227 1.9195c.0001 1.0601.8608 1.9195 1.9227 1.9195zm-7.0836 0c1.0619 0 1.9228-.8594 1.9228-1.9195s-.8609-1.9195-1.9228-1.9195c-1.0618 0-1.9227.8594-1.9227 1.9195s.8609 1.9195 1.9227 1.9195zm-7.0836 0c1.0618 0 1.9227-.8594 1.9227-1.9195s-.8609-1.9195-1.9227-1.9195c-1.0619 0-1.9228.8594-1.9228 1.9195s.8609 1.9195 1.9228 1.9195z" fill="#a3ec93"/></svg>

<svg width="36" height="36" viewBox="0 0 36 36" fill="none" xmlns="http://www.w3.org/2000/svg">
<path d="M6.98432 34.0964C6.67566 34.0964 6.3711 34.2139 6.13942 34.4376C4.65839 35.8678 2.49801 36.3439 0.577503 35.7479C1.81349 33.173 1.98476 30.2231 1.02695 27.4917C-0.16172 24.0934 -0.459604 20.6872 0.893206 17.271C2.0817 14.27 4.37521 11.7768 7.27784 10.355C7.09927 11.307 7.00927 12.277 7.00927 13.2573C7.00919 17.4181 8.60917 21.3314 11.5142 24.2766C14.4196 27.2221 18.3143 28.8783 22.4806 28.9402C23.2547 28.9523 24.0253 28.9068 24.7871 28.8064C22.4973 32.82 18.1789 35.434 13.4335 35.5044C11.3576 35.5365 9.36435 35.1015 7.50809 34.2151C7.34093 34.1352 7.16191 34.0964 6.98432 34.0964Z" fill="#46C4C2"/>
<path d="M22.4457 0.00264504C29.8367 -0.144113 35.9807 5.83509 35.9985 13.2245C36.0029 15.0299 35.6504 16.7803 34.951 18.4273C34.9408 18.4513 34.9314 18.4755 34.9228 18.5001C33.965 21.2315 34.1362 24.1813 35.3723 26.7563C33.4516 27.3521 31.2915 26.8762 29.8103 25.4459C29.4455 25.0934 28.8995 25.0047 28.4417 25.2235C26.5857 26.1099 24.5922 26.5462 22.5164 26.5129C15.1832 26.404 9.43898 20.5814 9.43907 13.2571C9.43898 6.09269 15.2738 0.146819 22.4457 0.00264504ZM29.8023 15.237C30.8642 15.237 31.7251 14.3776 31.7251 13.3175C31.7251 12.2574 30.8642 11.398 29.8023 11.398C28.7404 11.398 27.8796 12.2574 27.8796 13.3175C27.8797 14.3776 28.7404 15.237 29.8023 15.237ZM22.7187 15.237C23.7806 15.237 24.6415 14.3776 24.6415 13.3175C24.6415 12.2574 23.7806 11.398 22.7187 11.398C21.6569 11.398 20.796 12.2574 20.796 13.3175C20.796 14.3776 21.6569 15.237 22.7187 15.237ZM15.6351 15.237C16.6969 15.237 17.5578 14.3776 17.5578 13.3175C17.5578 12.2574 16.6969 11.398 15.6351 11.398C14.5732 11.398 13.7123 12.2574 13.7123 13.3175C13.7123 14.3776 14.5732 15.237 15.6351 15.237Z" fill="#A3EC93"/>
</svg>
